X: 10701
M: 2/4
L: 1/16
K: D
!f!{c}d2 |\
!p!A2F2F2 (3(FED) | A2A2A2 !f!{c}d2 | !p!A2F2F2 (3(FED) | A2A2A2 z>A |\
!f!d3e d3e | !f![f6A6] (3(fga) | d2(3(fga) d2(3(fga) | d2d2d2 H|]
!p!d2d2d2 !f!f2 | (f2A2) z2!p!A2 | e2e2e2 !f!g2 | (g2A2) z2!p!A2 |\
!f!{d}d'2 |\
!p!a2f2f2 (3(fed) | a2f2f2 !f!{d}d'2 | !p!a2f2f2 (3(fed) | a2A2 AA,B,C |\


